images/sc2/RPAD.svg

<?xml version='1.0' encoding='utf-8'?>
<svg xmlns="http://www.w3.org/2000/svg" viewBox="782.676 408.139 347.237 354.013" width="115.746" height="118.004"><path d="M 868.4787 740.7374 C 854.0686 736.5734 843.7471 728.5806 837.5034 716.7508 C 832.8010 707.8412 832.3559 705.4649 817.6089 610.5470 C 802.0115 510.1558 801.6405 507.4380 802.5243 500.0452 C 804.7343 481.5593 819.8626 464.3644 837.3495 460.4629 C 857.1352 456.0486 1028.7231 427.3085 1035.6595 427.2470 C 1051.7713 427.1043 1068.5123 438.0798 1076.3855 453.9472 C 1080.4832 462.2058 1080.7643 463.8274 1097.0779 573.3265 C 1110.5983 664.0769 1110.9472 669.4044 1104.2462 682.7782 C 1099.4009 692.4485 1089.2237 702.8042 1080.7663 706.6701 C 1073.4509 710.0139 1043.1472 715.7309 950.1026 731.3208 C 884.4081 742.3281 876.9577 743.1876 868.4787 740.7374 Z " style="fill:#666666;stroke:#1a1a1a;stroke-width:7.404" /></svg>

<svg xmlns="http://www.w3.org/2000/svg" width="115.746" height="118.004" viewBox="782.676 408.139 347.237 354.013"><path d="M868.479 740.737c-14.41-4.164-24.732-12.156-30.976-23.986-4.702-8.91-5.147-11.286-19.894-106.204-15.598-100.391-15.969-103.109-15.085-110.502 2.21-18.486 17.339-35.68 34.826-39.582 19.785-4.414 191.373-33.155 198.31-33.216 16.111-.143 32.852 10.833 40.726 26.7 4.097 8.259 4.378 9.88 20.692 119.38 13.52 90.75 13.87 96.077 7.168 109.451-4.845 9.67-15.022 20.026-23.48 23.892-7.315 3.344-37.619 9.06-130.663 24.65-65.695 11.008-73.145 11.868-81.624 9.417Z" style="fill:#666;stroke:#1a1a1a;stroke-width:7.404"/></svg>
